X:1
T:Polska från Vrigstad
R:Slängpolska
O:Vrigstad, Småland
N:Versionen är från Blue Rose.
M:3/4
L:1/16
K:D
(dcdc dc)(dc dc)de|f2fe d2dc B4|(BABA BA)(BA BA)Bc|
d2dc B2BA G4|(E2G2) B2e2 (fg)e2|(ed)dc e4 d4:|
|:(fg)ef d2d2 e4|f2ef g2g2 e4|(fg)(ef) d2d2 e3(f|gf)ed c2d2 d4:|

